img/phone-img-green.svg

<svg width="12" height="12" viewBox="0 0 12 12" fill="none" xmlns="http://www.w3.org/2000/svg">
<path d="M11.9741 9.29781C11.9401 9.19554 11.7242 9.04488 11.3264 8.84619C11.2186 8.78357 11.0651 8.69846 10.8664 8.59049C10.6675 8.48252 10.487 8.38303 10.3252 8.2921C10.163 8.20121 10.0111 8.11314 9.86919 8.02804C9.8465 8.01099 9.77548 7.96135 9.65617 7.87879C9.53674 7.79646 9.43602 7.73535 9.35348 7.6955C9.27112 7.65589 9.19011 7.63595 9.11055 7.63595C8.99694 7.63595 8.85503 7.71696 8.68464 7.87879C8.51425 8.04082 8.35795 8.21682 8.21598 8.40733C8.07398 8.59774 7.92339 8.77375 7.76446 8.93569C7.60529 9.09769 7.47452 9.17861 7.37237 9.17861C7.32108 9.17861 7.25714 9.16432 7.18052 9.13611C7.10392 9.10772 7.04565 9.08339 7.00565 9.06378C6.96601 9.04375 6.89798 9.00411 6.80132 8.94425C6.70448 8.88458 6.65063 8.8519 6.63929 8.84619C5.86093 8.41428 5.19337 7.91995 4.63651 7.36332C4.07982 6.80636 3.58543 6.13887 3.15363 5.36041C3.14796 5.34904 3.11521 5.29504 3.0556 5.1985C2.9959 5.10188 2.95611 5.03379 2.93623 4.99391C2.91635 4.95417 2.8922 4.89591 2.86384 4.81922C2.83548 4.74253 2.82124 4.67865 2.82124 4.62746C2.82124 4.52525 2.90223 4.3945 3.06417 4.23539C3.22608 4.07638 3.40226 3.92575 3.59253 3.78381C3.78295 3.64187 3.95895 3.48557 4.12092 3.31518C4.28283 3.1447 4.36379 3.00273 4.36379 2.88912C4.36379 2.80963 4.34391 2.72858 4.30418 2.64622C4.26441 2.56368 4.20334 2.46297 4.12092 2.34359C4.03847 2.22428 3.98877 2.15332 3.9717 2.13049C3.88656 1.98855 3.79859 1.83658 3.70758 1.67464C3.61656 1.51272 3.51722 1.33225 3.40922 1.13341C3.30131 0.934661 3.21614 0.781198 3.15357 0.673257C2.95483 0.275613 2.80429 0.0596122 2.70199 0.0256419C2.6622 0.00859706 2.6025 0 2.52303 0C2.36954 0 2.1693 0.0283583 1.92216 0.0852542C1.67494 0.14206 1.4804 0.201643 1.33834 0.26424C1.05425 0.383494 0.753144 0.730063 0.434934 1.30383C0.145171 1.8378 0.000305176 2.36631 0.000305176 2.88897C0.000305176 3.04225 0.0102455 3.19139 0.0301262 3.3364C0.0500069 3.48127 0.0855294 3.64465 0.136724 3.8265C0.187828 4.00829 0.229052 4.14333 0.260217 4.23127C0.291411 4.31928 0.34965 4.47692 0.434904 4.70426C0.520039 4.93155 0.571233 5.07068 0.588278 5.12182C0.787115 5.67866 1.02291 6.17576 1.29559 6.61329C1.74425 7.34051 2.35652 8.09207 3.13205 8.86766C3.90761 9.64318 4.65901 10.2554 5.3863 10.7043C5.82376 10.9769 6.32105 11.2127 6.8778 11.4117C6.92896 11.4286 7.0681 11.4797 7.29529 11.5651C7.52258 11.6503 7.68028 11.7086 7.76828 11.7398C7.85631 11.7711 7.99139 11.8124 8.17303 11.8636C8.35506 11.9147 8.51828 11.9503 8.66315 11.9703C8.80811 11.9899 8.95727 12 9.11059 12C9.63321 12 10.1618 11.8551 10.6958 11.5653C11.2695 11.2473 11.616 10.9461 11.7353 10.6618C11.7981 10.5199 11.8575 10.3253 11.9143 10.0781C11.9713 9.83095 11.9996 9.63074 11.9996 9.47727C11.9998 9.39748 11.9912 9.33793 11.9741 9.29781Z" fill="#497870"/>
</svg>

<svg width="12" height="12" fill="none" xmlns="http://www.w3.org/2000/svg"><path d="M11.974 9.298c-.034-.102-.25-.253-.648-.452a19.972 19.972 0 00-.46-.256 32.7 32.7 0 01-.997-.562 11.171 11.171 0 00-.213-.15 2.395 2.395 0 00-.303-.183.558.558 0 00-.242-.06c-.114.001-.256.082-.426.244a4.15 4.15 0 00-.469.528c-.142.19-.293.367-.452.529-.159.162-.29.243-.392.243a.58.58 0 01-.191-.043 1.989 1.989 0 01-.175-.072c-.04-.02-.108-.06-.205-.12a5.297 5.297 0 00-.162-.098 8.956 8.956 0 01-2.002-1.483A8.951 8.951 0 013.154 5.36a4.945 4.945 0 00-.098-.162c-.06-.096-.1-.164-.12-.204a1.848 1.848 0 01-.072-.175.577.577 0 01-.043-.192c0-.102.081-.232.243-.392a4.96 4.96 0 01.529-.451c.19-.142.366-.298.528-.469.162-.17.243-.312.243-.426 0-.08-.02-.16-.06-.243a2.37 2.37 0 00-.183-.302l-.15-.214a18.685 18.685 0 01-.263-.455c-.091-.162-.19-.343-.299-.542a20.244 20.244 0 00-.255-.46c-.2-.397-.35-.613-.452-.647A.477.477 0 002.523 0c-.153 0-.354.028-.6.085a3.375 3.375 0 00-.585.18C1.054.382.753.73.435 1.303.145 1.838 0 2.366 0 2.889a3.291 3.291 0 00.137.938c.05.181.092.316.123.404.031.088.09.246.175.473.085.228.136.367.153.418a7.72 7.72 0 00.708 1.491c.448.728 1.06 1.48 1.836 2.255.776.775 1.527 1.387 2.254 1.836.438.273.935.509 1.492.708.051.017.19.068.417.153.228.085.385.144.473.175.088.031.223.072.405.124a3.272 3.272 0 00.938.136c.522 0 1.05-.145 1.585-.435.574-.318.92-.619 1.04-.903a3.35 3.35 0 00.178-.584c.057-.247.086-.447.086-.6 0-.08-.009-.14-.026-.18z" fill="#497870"/></svg>
